images/lk-icon-dark.svg

<svg width="25" height="24" viewBox="0 0 25 24" fill="none" xmlns="http://www.w3.org/2000/svg">
<g clip-path="url(#clip0_5_1157)">
<path d="M0.580017 12C0.580017 5.37258 5.9526 0 12.58 0C19.2074 0 24.58 5.37258 24.58 12C24.58 18.6274 19.2074 24 12.58 24C5.9526 24 0.580017 18.6274 0.580017 12Z" fill="#BA8D5B"/>
<path fill-rule="evenodd" clip-rule="evenodd" d="M9.23949 7.41135C9.23949 8.1959 8.64893 8.82367 7.7007 8.82367H7.68332C6.77034 8.82367 6.18011 8.1959 6.18011 7.41135C6.18011 6.6102 6.78831 6 7.71862 6C8.64893 6 9.22184 6.6102 9.23949 7.41135ZM9.0604 9.93886V18.1097H6.34094V9.93886H9.0604ZM18.868 18.1098L18.8681 13.4249C18.8681 10.9152 17.5265 9.74713 15.737 9.74713C14.2931 9.74713 13.6467 10.5402 13.2857 11.0965V9.93921H10.566C10.6018 10.7059 10.566 18.1101 10.566 18.1101H13.2857V13.5468C13.2857 13.3026 13.3034 13.059 13.3753 12.8841C13.5718 12.3963 14.0194 11.8912 14.7707 11.8912C15.7551 11.8912 16.1486 12.6404 16.1486 13.7384V18.1098H18.868Z" fill="#021923"/>
</g>
<defs>
<clipPath id="clip0_5_1157">
<rect width="24" height="24" fill="white" transform="translate(0.580017)"/>
</clipPath>
</defs>
</svg>

<svg xmlns="http://www.w3.org/2000/svg" width="25" height="24" fill="none"><g clip-path="url(#a)"><path fill="#BA8D5B" d="M.58 12c0-6.627 5.373-12 12-12s12 5.373 12 12-5.373 12-12 12-12-5.373-12-12Z"/><path fill="#021923" fill-rule="evenodd" d="M9.24 7.411c0 .785-.591 1.413-1.54 1.413h-.017c-.913 0-1.503-.628-1.503-1.413C6.18 6.611 6.788 6 7.72 6c.93 0 1.503.61 1.52 1.411ZM9.06 9.94v8.17H6.34V9.94h2.72Zm9.808 8.17v-4.684c0-2.51-1.341-3.678-3.131-3.678-1.444 0-2.09.793-2.451 1.35V9.939h-2.72c.036.767 0 8.171 0 8.171h2.72v-4.563c0-.244.017-.488.09-.663.196-.488.643-.993 1.395-.993.984 0 1.378.75 1.378 1.847v4.372h2.719Z" clip-rule="evenodd"/></g><defs><clipPath id="a"><path fill="#fff" d="M.58 0h24v24h-24z"/></clipPath></defs></svg>
